!!!COM: Hartling, Carlos
!!!CDT: 1869-1920
!!!OTL: National Anthem, Honduras
!!!ENC: Davis, Matthew J.
!!Vocal Line Only
**kern
*clefG2
*k[]
*X:
*M4/4
=1-
!Chorus
8.g
16g
=2
4.cc
8g4e
8.cc
16cc
=3
4.ee
8cc
4g
8.g
16g
=4
4a
4g
4f
4e
=5
4g
4f
4r
8.d
16d
=6
4.f
8e
4d
8.f
16f
=7
4.a
8g
4f
8dd
8cc
=8
4b
4g
4a
4b
=9
4cc
4cc
4r
8.g
16g
=10
4cc
8.e
16e
4b
8.a
16g
=11
4g
4f
8r
8f
8f
8g
=12
4a
8.d
16d
8.g
16g
8.f
16g
=13
2e
8r
8e
8e
8f
=14
4g
8g
8a
8b-
8dd
8cc
8b-
=15
4b-
4a
4r
8a
8bn
=16
8cc
8ee
8cc
8g
8b
8a
8f
8d
=17
4c
4c
4r
8.g
16g
=18
4.cc
8g
4e
8.cc
16cc
=19
4.ee
8cc
4g
8.g
16g
=20
4a
4g
4f
4e
=21
4g
4f
4r
8.d
16d
=22
4.f
8e
4d
8.f
16f
=23
4.a
8g
4f
8dd
8cc
=24
4b
4g
4a
4b
=25
2cc
4r
!Fine
==26
*k[b-]
!Verse
8.c
16c
=27
4f
8f
8g
4a
8g
8f
=28
4a
4a
4r
8cc
8cc
=29
4dd
8cc
8f
4a
8g
8f
=30
4a
4a
8r
8cc
8cc
8dd
=31
8.ee
16ee
8b-
8cc
4dd
8cc
8b-
=32
4cc
4cc
8r
8a
8a
8b-
=33
4cc
8g
8a
8b-
16cc
16b-
8a
8g
=34
2f
8r
8f
8f
8f
=35
4.ee-
8ee-
8ee-
8ee-
16dd
16cc
16cc
16dd
=36
4cc
4b-
8r
8b-
8b-
8a
=37
4g
8g
16a
16a
8cc
8b-
8a
8g
=38
4g
4f
4r
4c
=39
2f
4f
4g
=40
2a
4r
8f
8a
=41
4cc
4dd
4cc
4f
=42
4a
4a
4r
8.a
16b-
=43
4cc
8g
8a
4b-
8a
8g
=44
2.f
!D.C. First Time (Repeat from beginnning)
!D.C. al Fine Second Time (Repeat from beginning to measure 26)
==|!
*-
